X:1
T:Cieto Lindo
M:3/4
L:1/4
K:A
 A A F-| F G E| A A F-| F G E| A A| F-| F G E| D B,2-| B,3| G G G/2 G/2-|\
 G F E| D B, B,-| B, C D| E E E-| E D3/2 C/2|C/2-B,/2 A,2-| A,3| c3|\
 B2 A| F3-| F3| B3| B2 A| c A2-| A2 E| F2 E| F F E| d d B-| B G E|\
 F F E-| E D E|C/2-B,/2 A,2-| A,||
